X:1
T:Second Suite in F
T:Second Suite in F
T:Gustav Holst
T:Euphonium Only B
C:Gustav Holst
L:1/8
Q:1/2=120
M:2/2
K:F
V:1 bass nm="Euphonium" snm="Euph."
V:1
!f! .F,,.G,,.A,,.B,, .C,2 z2 |!f! .F,.G,.A,.B, .C2 z2 |!f! .F,.G,.A,.B, .C2 .C2 | %3
 .D2 .E2 .F2 (EF) | .G2 .C2 .F2 .E2 | (D4 .C2) z2 |!f! .F,.G,.A,.B, .C2 .C2 | .D2 .E2 .F2 (EF) | %8
 .G2 .C2 .F2 .E2 | (D4 .C2) z2 |"^A" F4 (E3 F) | .D2 .F2 C4 | F2 .E.D .C2 .B,.A, | %13
 (B,CDB, G,2) (A,G,) | .F,.G,.A,.B, .C2 .C2 | .D2 .E2 .F2 (EF) | .G2 .C2 .F2 .E2 | (D4 C2) z2 | %18
"^B"!mf! (F,G,A,B, .C2) .F,2 | (DCB,A, .G,2) .C,2 | (F,G,A,B, .C2) .C2 | (A,3 B,) C4 | %22
 (F,G,A,B, .C2) .F,2 | (DCB,A, .G,2) .C,2 | (F,G,A,B, .C2) .C2 | (A,3 B,) C4 | %26
"^C"!f! .F,.G,.A,.B, .C2 .C2 | .D2 .E2 .F2 (EF) | .G2 .C2 .F2 .E2 | (D4 .C2) z2 | %30
!f! .F,.G,.A,.B, .C2 .C2 | .D2 .E2 .F2 (EF) | .G2 .C2 .F2 .E2 | (D4 .C2) z2 |"^D" F4 (E3 F) | %35
 .D2 .F2 C4 | F2 .E.D .C2 .B,.A, | (B,CDB, G,2) (A,G,) | .F,.G,.A,.B, .C2 .C2 | .D2 .E2 .F2 (EF) | %40
 .G2 .C2 .F2 .E2 | (D4 C4) |!ff! D4!>(! C4 | B,4 A,4 | G,4 F,4 | E,4!>)!!f! (F,,3 A,, | %46
"^E" C,4 C,4 | B,,4 G,,4 | F,,8- | F,,4) (C,4 | D,4 G,4 | F,2 E,2 D,2 C,2 | F,8- | F,4) (C,4 | %54
 F,6 E,2 | D,6 C,2 | D,4 C,4 | A,,4) (F,,3 A,, | D,4 C,4 | B,,4 A,,4 | G,,8- | G,,4) (F,,3 G,, | %62
"^F" A,,4 C,4 | G,,4 A,,2 G,,2 | !tenuto!F,,4 !tenuto!F,,4 | !tenuto!F,,4) (C,3 C, | D,4 G,4 | %67
 F,2 E,2 D,2 C,2 | F,8- | F,4) C,4 | (F,6 E,2 | D,6 C,2 | D,4 F,4 | A,,4) (F,,2 A,,2 | C,6 D,2 | %75
 C,2 B,,2 G,,2 E,,2 | F,,8- | F,,4)!f! F,3 A, |"^G" C4 C4 | B,4 G,4 | F,8- | F,4 C4 | D4 G4 | %83
 F2 E2 D2 C2 | F8- | F4 C4 | F6 E2 | D6 C2 | D4 C4 | A,4 F,3 A, | D4 C4 | B,4 A,4 | G,8- | %93
 G,4 F,3 G, | A,4 C4 | G,4 A,2 G,2 | !tenuto!F,4 !tenuto!F,4 | !tenuto!F,4 C3 C | D4 G4 | %99
 F2 E2 D2 C2 | F8- | F4 C4 | F6 E2 | D6 C2 | D4 F4 | A,4 F,2 A,2 | C6 D2 | C2 B,2 G,2 E,2 | F,8 | %109
 !>!F,4 z4!fine! |[K:Db][M:6/8]"^H"[Q:3/8=120] !>!B,2 z z z!mf! F,, | B,,2 B,, (B,,A,,G,,) | %112
 (D,2 E,) (F,A,F,) | (E,D,B,,) (B,,A,,F,,) | A,,3- A,,2 F,, | B,,2 B,, (B,,A,,G,,) | %116
 (D,2 E,) (F,A,F,) | (E,D,B,,) B,,2 C, | B,,3- B,,2 F, | (A,2 F, D,2 F,) | (A,3 B,2) A, | %121
 (F,E,D,) (E,D,B,,) | A,,3- A,,2 A,, | B,,2 B,, (B,,A,,F,,) | (D,2 E,) (F,A,F,) | %125
 (E,D,B,,) B,,2 C, | B,,3- B,,2 F, |"^I" A,3- A,2 F, | (B, A,2- A,2) F, | (F,E,D,) (E,D,B,,) | %130
 A,,3- A,,2!f! A,, | B,,2 B,, (B,,A,,F,,) | D,2 E, (F,A,F,) | (E,D,B,,) B,,2 C, | B,,3- B,, z F, | %135
"^J" B,2 B, (B,A,F,) | (D2 E) (FAF) | (EDB,) (B,A,F,) | A,3- A,2 F, | B,2 B, (B,A,F,) | %140
 (D2 E) (FAF) | (EDB,) A,2 C | B,3- B, z F, | (A,2 F, D,2 F,) | (A,3 B,2) A, | (FED) (EDB,) | %146
 A,3- A,2 A, |!mp! B,2!<(! B, (B,A,F,) | (D2 E) (FAF) | (EDB,) A,2 C | B,3- B, z F,!<)! | %151
"^K"!ff! A,3- A,2 F, | B, A,2- A,2 F | (FED) (EDB,) | A,3- A,2 A, | B,2 B, (B,A,F,) | %156
 (D2 E) F z F | (EDB,) B,2 C | B,3 B,,2 z!D.C.! |] %159

